packages/calcite-ui-icons/icons/mosaic-method-seamline-32.svg

<svg xmlns="http://www.w3.org/2000/svg" viewBox="0 0 32 32"><path fill="none" d="M0 0h32v32H0z"/><path d="M4 16h4v4H4v-4zm5-1h4v-4H9v4zm15 1v4h4v-4h-4zm-3 6h-2v3h4v-4h-2v1z" opacity=".5"/><path d="M4 11h4v4H4v-4zm5 14h2v-4H9v4zm7 0h2v-3h-2v3zm8-14v4h4v-4h-4zm-3 9h2v-4h-2v4zm-5-4h-2v1h2v-1z" opacity=".25"/><path d="M13 28h1v2h-1v-2zm0-1h1v-2h-1v2zm0-3h1v-2h-1v2zm6-9h-1v2h1v-2zm0-3h-1v2h1v-2zm0-3h-1v2h1V9zm0-3h-1v2h1V6zm0-3h-1v2h1V3zm-3 17h3v-2h-1v1h-2v1zm-1-1h-2v2h1v-1h1v-1zm8-14V3l-2.842 2.5L23 8V6h6V5h-6zm-9 3l2.842-2.5L14 3v2H8v1h6v2zm6 2h9v16H15v-5h5V10zm-2 12h-2v3h2v-3zm6-7h4v-4h-4v4zm0 5h4v-4h-4v4zm0 5h4v-4h-4v4zm-3-10h2v-4h-2v4zm0 5h2v-4h-2v4zm0 2h-2v3h4v-4h-2v1zm-9-4v8H3V10h14v8h-5zm2-3h2v-4h-2v4zm0 2h2v-1h-2v1zm-6 4H4v4h4v-4zm0-5H4v4h4v-4zm0-5H4v4h4v-4zm1 4h4v-4H9v4zm2 6H9v4h2v-4zm2-4v-1H9v4h2v-3h2zm0 15h1v-1h-1v1zm6-31h-1v1h1V1z"/></svg>

<?xml version="1.0" encoding="UTF-8"?><svg id="icons" xmlns="http://www.w3.org/2000/svg" viewBox="0 0 32 32"><defs><style>.cls-1{fill:none;}.cls-2{opacity:.5;}.cls-3{opacity:.25;}</style></defs><rect class="cls-1" width="32" height="32"/><path class="cls-2" d="M4,16h4v4h-4v-4ZM9,15h4v-4h-4v4ZM24,16v4h4v-4h-4ZM21,22h-2v3h4v-4h-2v1Z"/><path class="cls-3" d="M4,11h4v4h-4v-4ZM9,25h2v-4h-2v4ZM16,25h2v-3h-2v3ZM24,11v4h4v-4h-4ZM21,20h2v-4h-2v4ZM16,16h-2v1h2v-1Z"/><path d="M13,28h1v2h-1v-2ZM13,27h1v-2h-1v2ZM13,24h1v-2h-1v2ZM19,15h-1v2h1v-2ZM19,12h-1v2h1v-2ZM19,9h-1v2h1v-2ZM19,6h-1v2h1v-2ZM19,3h-1v2h1v-2ZM16,20h3v-2h-1v1h-2v1ZM15,19h-2v2h1v-1h1v-1ZM23,5v-2l-2.84174,2.5,2.84174,2.5v-2h6v-1h-6ZM14,8l2.8418-2.5-2.8418-2.5v2h-6v1h6v2ZM20,10h9v16h-14v-5h5v-11ZM18,22h-2v3h2v-3ZM24,15h4v-4h-4v4ZM24,20h4v-4h-4v4ZM24,25h4v-4h-4v4ZM21,15h2v-4h-2v4ZM21,20h2v-4h-2v4ZM21,22h-2v3h4v-4h-2v1ZM12,18v8H3V10h14v8h-5ZM14,15h2v-4h-2v4ZM14,17h2v-1h-2v1ZM8,21h-4v4h4v-4ZM8,16h-4v4h4v-4ZM8,11h-4v4h4v-4ZM9,15h4v-4h-4v4ZM11,21h-2v4h2v-4ZM13,17v-1h-4v4h2v-3h2ZM13,32h1v-1h-1v1ZM19,1h-1v1h1v-1Z"/></svg>
